public/editor-src/editor/icons/fa/text-slash.svg

<svg xmlns="http://www.w3.org/2000/svg" viewBox="0 0 640 512"><!--! Font Awesome Free 6.4.0 by @fontawesome - https://fontawesome.com License - https://fontawesome.com/license/free (Icons: CC BY 4.0, Fonts: SIL OFL 1.1, Code: MIT License) Copyright 2023 Fonticons, Inc.--><path d="M38.8 5.1C28.4-3.1 13.3-1.2 5.1 9.2s-6.3 25.5 4.1 33.7l592 464c10.4 8.2 25.5 6.3 33.7-4.1s6.3-25.5-4.1-33.7L355.7 253.5 400.2 96H503l-6 24.2c-4.3 17.1 6.1 34.5 23.3 38.8s34.5-6.1 38.8-23.3l11-44.1c7.5-30.3-15.4-59.6-46.6-59.6h-319c-22 0-41.2 15-46.6 36.4l-6.3 25.2L38.8 5.1zm168 131.7c.1-.3.2-.7.3-1L217 96h116.7l-32.4 114.8-94.5-74.1zM243.3 416H192c-17.7 0-32 14.3-32 32s14.3 32 32 32h160c17.7 0 32-14.3 32-32s-14.3-32-32-32h-42.2l17.6-62.1-54.5-42.9-29.6 105z"/></svg>

<svg xmlns="http://www.w3.org/2000/svg" viewBox="0 0 640 512"><!--! Font Awesome Free 6.4.0 by @fontawesome - https://fontawesome.com License - https://fontawesome.com/license/free (Icons: CC BY 4.0, Fonts: SIL OFL 1.1, Code: MIT License) Copyright 2023 Fonticons, Inc. --><path d="M38.8 5.1C28.4-3.1 13.3-1.2 5.1 9.2S-1.2 34.7 9.2 42.9l592 464c10.4 8.2 25.5 6.3 33.7-4.1s6.3-25.5-4.1-33.7L355.7 253.5 400.2 96H503L497 120.2c-4.3 17.1 6.1 34.5 23.3 38.8s34.5-6.1 38.8-23.3l11-44.1C577.6 61.3 554.7 32 523.5 32H376.1h-.3H204.5c-22 0-41.2 15-46.6 36.4l-6.3 25.2L38.8 5.1zm168 131.7c.1-.3 .2-.7 .3-1L217 96H333.7L301.3 210.8l-94.5-74.1zM243.3 416H192c-17.7 0-32 14.3-32 32s14.3 32 32 32H352c17.7 0 32-14.3 32-32s-14.3-32-32-32H309.8l17.6-62.1L272.9 311 243.3 416z"/></svg>
